Numix-GalliumOS/24/apps/goa-account-kerberos.svg

<?xml version="1.0" encoding="UTF-8" standalone="no"?>
<svg
   xmlns:dc="http://purl.org/dc/elements/1.1/"
   xmlns:cc="http://creativecommons.org/ns#"
   xmlns:rdf="http://www.w3.org/1999/02/22-rdf-syntax-ns#"
   xmlns:svg="http://www.w3.org/2000/svg"
   xmlns="http://www.w3.org/2000/svg"
   xmlns:sodipodi="http://sodipodi.sourceforge.net/DTD/sodipodi-0.dtd"
   xmlns:inkscape="http://www.inkscape.org/namespaces/inkscape"
   viewBox="0 0 24 24"
   id="svg2"
   version="1.1"
   inkscape:version="0.91 r"
   sodipodi:docname="goa-account-kerberos.svg"
   width="24"
   height="24">
  <metadata
     id="metadata10">
    <rdf:RDF>
      <cc:Work
         rdf:about="">
        <dc:format>image/svg+xml</dc:format>
        <dc:type
           rdf:resource="http://purl.org/dc/dcmitype/StillImage" />
        <dc:title />
      </cc:Work>
    </rdf:RDF>
  </metadata>
  <defs
     id="defs8" />
  <sodipodi:namedview
     pagecolor="#ffffff"
     bordercolor="#666666"
     borderopacity="1"
     objecttolerance="10"
     gridtolerance="10"
     guidetolerance="10"
     inkscape:pageopacity="0"
     inkscape:pageshadow="2"
     inkscape:window-width="1920"
     inkscape:window-height="1056"
     id="namedview6"
     showgrid="true"
     inkscape:zoom="11.313709"
     inkscape:cx="18.383456"
     inkscape:cy="9.5521766"
     inkscape:window-x="0"
     inkscape:window-y="24"
     inkscape:window-maximized="1"
     inkscape:current-layer="svg2">
    <inkscape:grid
       type="xygrid"
       id="grid4138" />
  </sodipodi:namedview>
  <path
     d="M 7.0924015,19 C 7.9186165,14.705043 5.6920362,13.274168 3.6020512,14.901187 L 2.6547524,14.313275 4.3306637,12.414754 4.3677854,11.510432 5.9712638,10.486958 5.5689005,9.4615227 c 0.687537,0.3008068 1.3242806,0.2558684 1.5723929,0.9648943 1.4824551,0.179693 2.9045506,1.718827 2.8381542,2.74218 C 10.903327,10.486777 12.198302,9.0550243 8.3367345,7.1252971 L 8.2157116,6.1018234 10.633756,6.7190402 11.3994,6.3127834 12.542026,7.0198471 13.366279,6.4026302 c -0.234379,0.5879116 0.291029,0.7519717 -0.144533,1.2500674 1.228579,1.0234737 0.84378,4.2364064 0.976604,5.5628304 0.343753,-1.041069 1.146519,-2.20126 2.54118,-2.519752 0.109373,-0.632851 1.000175,-0.630889 1.50992,-1.0840159 l -0.166022,1.0098019 1.410204,0.962933 0.01756,0.919955 1.834056,2.035358 -1.285197,0.617218 C 17.013054,12.805378 16.130281,15.898281 17.048063,19 Z"
     style="fill:#791918;stroke:none;stroke-width:0.12072"
     id="path4"
     inkscape:connector-curvature="0"
     sodipodi:nodetypes="cccccccccccccccccccccccccc" />
</svg>

<svg xmlns="http://www.w3.org/2000/svg" viewBox="0 0 24 24">
 <path d="m 7.092 19 c 0.826 -4.295 -1.4 -5.726 -3.49 -4.099 l -0.947 -0.588 1.676 -1.899 0.037 -0.904 1.603 -1.023 -0.402 -1.025 c 0.688 0.301 1.324 0.256 1.572 0.965 1.482 0.18 2.905 1.719 2.838 2.742 c 0.924 -2.682 2.219 -4.114 -1.643 -6.04 l -0.121 -1.023 2.418 0.617 0.766 -0.406 1.143 0.707 0.824 -0.617 c -0.234 0.588 0.291 0.752 -0.145 1.25 1.229 1.023 0.844 4.236 0.977 5.563 0.344 -1.041 1.147 -2.201 2.541 -2.52 0.109 -0.633 1 -0.631 1.51 -1.084 l -0.166 1.01 1.41 0.963 0.018 0.92 1.834 2.035 -1.285 0.617 c -3.047 -2.352 -3.93 0.741 -3.01 3.843" style="fill:#791918;stroke:none"/>
</svg>
